X:1
T:The World Must Be Taken for Jesus
T:The World Must Be Taken for Jesus
T:R. Frank Lehman
T:Alice Jean Cleator, 1901
T:Public Domain Courtesy of the Cyber Hymnal™
C:R. Frank Lehman
Z:Public Domain
Z:Courtesy of the Cyber Hymnal™
%%score ( 1 2 ) ( 3 4 )
L:1/8
Q:1/4=105
M:4/4
K:Ab
V:1 treble 
V:2 treble 
V:3 bass 
V:4 bass 
V:1
 E2 | [CA]2 [CA]>[CA] [CA]2 [=B,G]>[B,F] | [CE]4 [A,C]2 [CE]2 | [CA]2 [CA]>[CA] | %4
w: 1.~The|world must be tak- en for|Je- sus, Come,|en- ter His|
w: 2.~The|world must be tak- en for|Je- sus, O|hast- en and|
w: 3.~The|world must be tak- en for|Je- sus, The|strong- holds of|
 [CA]2 [=DG]>[DA] | [EB]6 [DE]2 | [CA]2 [CA]>[CA] [CA]2 [=B,G]>[B,F] | [CE]4 [CA]2 [Ec]2 | %8
w: ar- my to-|day; There’s|need of the true- heart- ed|sol- diers, For|
w: fall in- to|line; Though|might- y the foe, we shall|con- quer, Led|
w: Sa- tan must|yield; Go|for- ward with cour- age un-|fail- ing, And|
 [EB]2 [EB]>[EB] [=DB]2 [B,D]>[B,D] | [B,E]6 ||"^Refrain" E2 | (z2 E2) x6 | (z2 [Ec]2) x6 | %13
w: might- y is Sa- tan’s ar-|ray.||||
w: on by the Cap- tain Di-|vine.|En-|||
w: ne- ver re- treat from the|field.||||
 [=Ec]2 [Ec]>[EB] [FA]2 [FB]>[FB] | [=Ec]6 [Ec]2 | [Fc]2 [=Ec]>[Ec] | [Ff]2 [Fe]>[Fe] | %17
w: ||||
w: list! En- list! En- list in|His ar-|my to- day;|The world must|
w: ||||
 [Fd]4 [Fc]2 [FB]2 | [EA]2 [=DA]>[DA] [EA]2 [EG]>[EG] | [EA]6 |] %20
w: |||
w: be tak- en|for Je- sus, En- list in|His|
w: |||
V:2
 E2 | x8 | x8 | x4 | x4 | x8 | x8 | x8 | x8 | x6 || x2 | (d6 E2 E2) | (c6 E2 E2) | x8 | x8 | x4 | %16
 x4 | x8 | x8 | x6 |] %20
V:3
 E,2 | [A,,E,]2 [A,,E,]>[A,,E,] [A,,E,]2 [A,,=D,]>[A,,D,] | [A,,E,]4 [A,,E,]2 A,2 | %3
w: ~|~ ~ ~ ~ ~ ~|~ ~ ~|
 [F,A,]2 [F,A,]>[F,A,] | [F,A,]2 [B,,B,]>[B,,A,] | [E,G,]6 [E,G,]2 | %6
w: ~ ~ ~|~ ~ ~|~ ~|
 [A,,A,]2 [A,,E,]>[A,,E,] [A,,E,]2 [G,,=D,]>[A,,D,] | [A,,E,]4 [A,,E,]2 [A,,A,]2 | %8
w: ~ ~ ~ ~ ~ ~|~ ~ ~|
 [B,,G,]2 [B,,G,]>[B,,G,] [B,,F,]2 [B,,A,]>[B,,A,] | [E,G,]6 || z2 | z2 [E,G,]2 [E,G,]2 z2 x2 | %12
w: ~ ~ ~ ~ ~ ~|~||En- list!|
 z2 [A,,A,]2 [A,,A,]2 [A,,A,]2 x2 | [C,G,]2 [C,C]>[C,C] [F,C]2 [D,F,]>[D,F,] | [C,G,]6 [B,C]2 | %15
w: En- list! *|||
 [A,C]2 [G,B,]>[G,B,] | [F,A,]2 [F,=A,]>[F,A,] | [B,,B,]4 [C,=A,]2 [D,B,]2 | %18
w: |||
 [E,C]2 [F,_C]>[F,C] [E,=C]2 [E,D]>[E,D] | [A,,C]6 |] %20
w: ||
V:4
 E,2 | x8 | x6 A,2 | x4 | x4 | x8 | x8 | x8 | x8 | x6 || x2 | x10 | x10 | x8 | x8 | x4 | x4 | x8 | %18
 x8 | x6 |] %20

